Hatter-kde/actions/24/view-calendar-timeline.svg

<?xml version="1.0" encoding="UTF-8"?>
<svg viewBox="0 0 24 24" xmlns="http://www.w3.org/2000/svg">
 <defs id="defs3051">
  <style id="current-color-scheme" type="text/css">.ColorScheme-Text {
        color:#363636;
      }</style>
 </defs>
 <path class="ColorScheme-Text" d="m7 4s-1-3e-5 -1 1h-2v3 11 1h16v-1-11-3h-2c0-1-1-1-1-1h-3s-1-3e-5 -1 1h-2c0-1-1-1-1-1h-3zm0 1h3v1h-3v-1zm7 0h3v1h-3v-1zm-9 3h14v11h-14v-11zm1 1v3h1v-1h4v1h1v-3h-1v1h-4v-1h-1zm6 6v3h1v-1h4v1h1v-3h-1v1h-4v-1h-1z" fill="currentColor"/>
</svg>

<svg xmlns="http://www.w3.org/2000/svg" viewBox="0 0 24 24">
  <defs id="defs3051">
    <style type="text/css" id="current-color-scheme">
      .ColorScheme-Text {
        color:#363636;
      }
      </style>
  </defs>
 <path style="fill:currentColor;fill-opacity:1;stroke:none" 
     d="M 7 4 C 7 4 6 3.99997 6 5 L 4 5 L 4 8 L 4 19 L 4 20 L 20 20 L 20 19 L 20 8 L 20 5 L 18 5 C 18 3.99997 17 4 17 4 L 14 4 C 14 4 13 3.99997 13 5 L 11 5 C 11 3.99997 10 4 10 4 L 7 4 z M 7 5 L 10 5 L 10 6 L 7 6 L 7 5 z M 14 5 L 17 5 L 17 6 L 14 6 L 14 5 z M 5 8 L 19 8 L 19 19 L 5 19 L 5 8 z M 6 9 L 6 12 L 7 12 L 7 11 L 11 11 L 11 12 L 12 12 L 12 9 L 11 9 L 11 10 L 7 10 L 7 9 L 6 9 z M 12 15 L 12 18 L 13 18 L 13 17 L 17 17 L 17 18 L 18 18 L 18 15 L 17 15 L 17 16 L 13 16 L 13 15 L 12 15 z "
     class="ColorScheme-Text"
     />
</svg>
